src/symbolic/apps/internet-chat-symbolic.svg

<?xml version="1.0" encoding="UTF-8" standalone="no"?>
<svg
   xmlns:dc="http://purl.org/dc/elements/1.1/"
   xmlns:cc="http://creativecommons.org/ns#"
   xmlns:rdf="http://www.w3.org/1999/02/22-rdf-syntax-ns#"
   xmlns:svg="http://www.w3.org/2000/svg"
   xmlns="http://www.w3.org/2000/svg"
   version="1.1"
   width="16"
   height="16"
   id="svg6955">
  <defs
     id="defs6957" />
  <metadata
     id="metadata6960">
    <rdf:RDF>
      <cc:Work
         rdf:about="">
        <dc:format>image/svg+xml</dc:format>
        <dc:type
           rdf:resource="http://purl.org/dc/dcmitype/StillImage" />
        <dc:title></dc:title>
      </cc:Work>
    </rdf:RDF>
  </metadata>
  <path
     id="path3884"
     d="M 4.5 0 C 2.015649 -1.1842379e-15 0 2.0156486 0 4.5 C 0 5.98121 0.738589 7.273621 1.84375 8.09375 C 1.368605 8.702954 0.794286 9.1885004 0.15625 9.5625 C 0.75405212 9.8503097 1.4070513 9.9289388 2.0214844 9.8203125 C 2.3599185 7.0997186 4.6916062 4.9746094 7.5 4.9746094 L 11.5 4.9746094 C 11.995586 4.9746094 12.473833 5.0480187 12.931641 5.171875 C 12.965034 4.9509165 13 4.7302412 13 4.5 C 13 2.0156486 10.984351 0 8.5 0 L 4.5 0 z M 7.5 6 C 5.0156486 6 3 8.015649 3 10.5 C 3 12.984351 5.0156486 15 7.5 15 L 11.5 15 C 11.778759 15 12.047729 14.95482 12.3125 14.90625 C 13.18979 15.879647 14.631915 16.145934 15.84375 15.5625 C 15.205714 15.1885 14.631395 14.702954 14.15625 14.09375 C 15.261411 13.273621 16 11.98121 16 10.5 C 16 8.015649 13.984351 6 11.5 6 L 7.5 6 z "
     style="fill:#555761;fill-opacity:1;stroke:none;stroke-linejoin:round;stroke-opacity:0.49803922" />
</svg>

<svg xmlns="http://www.w3.org/2000/svg" width="16" height="16"><path d="M4.5 0A4.501 4.501 0 0 0 0 4.5c0 1.481.739 2.774 1.844 3.594A5.92 5.92 0 0 1 .156 9.563c.598.287 1.251.366 1.865.257C2.36 7.1 4.691 4.975 7.5 4.975h4c.496 0 .974.073 1.432.197.033-.221.068-.442.068-.672C13 2.016 10.984 0 8.5 0h-4zm3 6a4.501 4.501 0 0 0 0 9h4c.279 0 .548-.045.813-.094.877.974 2.319 1.24 3.53.656a5.92 5.92 0 0 1-1.687-1.468C15.261 13.274 16 11.98 16 10.5 16 8.016 13.984 6 11.5 6h-4z" fill="#555761"/></svg>
